TF1/normal_pdf.svg

<svg xmlns="http://www.w3.org/2000/svg" viewBox="0 0 1200 800" preserveAspectRatio="none" width="1200" height="800">
 <path d="M0,0H1200V800H0Z" style="fill: white;"></path>
 <g>
  <g transform="translate(120,80)">
   <path d="M0,0H960V640H0Z" style="fill: white; stroke: black; stroke-width: 1;"></path>
   <svg x="0" y="0" overflow="hidden" width="960" height="640" viewBox="0 0 960 640">
    <g>
     <path d="M0,558h10M5,528v61M10,593h10M15,576v35M19,558h10M24,528v61M29,506h10M34,463v86M38,541h10M43,506v70M48,419h10M53,361v116M58,558h10M63,528v61M67,454h10M72,401v105M77,471h10M82,422v99M86,419h10M91,361v116M96,524h10M101,484v79M106,489h10M111,442v93M115,384h10M120,321v126M125,401h10M130,341v121M134,541h10M139,506v70M144,314h10M149,242v144M154,122h10M159,29v185M163,349h10M168,281v135M173,384h10M178,321v126M182,261h10M187,183v157M192,139h10M197,48v182M202,541h10M207,506v70M211,296h10M216,222v148M221,314h10M226,242v144M230,454h10M235,401v105M240,436h10M245,381v110M250,489h10M255,442v93M259,454h10M264,401v105M269,384h10M274,321v126M278,384h10M283,321v126M288,436h10M293,381v110M298,471h10M303,422v99M307,471h10M312,422v99M317,401h10M322,341v121M326,541h10M331,506v70M336,506h10M341,463v86M346,576h10M351,551v50M355,506h10M360,463v86M365,489h10M370,442v93M374,558h10M379,528v61M384,524h10M389,484v79M394,524h10M399,484v79M403,489h10M408,442v93M413,524h10M418,484v79M422,558h10M427,528v61M432,541h10M437,506v70M442,541h10M447,506v70M451,506h10M456,463v86M461,506h10M466,463v86M470,524h10M475,484v79M480,489h10M485,442v93M490,541h10M495,506v70M499,489h10M504,442v93M509,506h10M514,463v86M518,489h10M523,442v93M528,454h10M533,401v105M538,349h10M543,281v135M547,384h10M552,321v126M557,349h10M562,281v135M566,419h10M571,361v116M576,419h10M581,361v116M586,331h10M591,261v140M595,436h10M600,381v110M605,331h10M610,261v140M614,349h10M619,281v135M624,331h10M629,261v140M634,401h10M639,341v121M643,314h10M648,242v144M653,261h10M658,183v157M662,279h10M667,203v152M672,401h10M677,341v121M682,279h10M687,203v152M691,331h10M696,261v140M701,401h10M706,341v121M710,471h10M715,422v99M720,226h10M725,144v164M730,419h10M735,361v116M739,401h10M744,341v121M749,454h10M754,401v105M758,401h10M763,341v121M768,436h10M773,381v110M778,471h10M783,422v99M787,366h10M792,301v131M797,314h10M802,242v144M806,506h10M811,463v86M816,419h10M821,361v116M826,489h10M831,442v93M835,471h10M840,422v99M845,366h10M850,301v131M854,471h10M859,422v99M864,471h10M869,422v99M874,489h10M879,442v93M883,506h10M888,463v86M893,576h10M898,551v50M902,558h10M907,528v61M912,471h10M917,422v99M922,558h10M927,528v61M931,471h10M936,422v99M941,576h10M946,551v50M950,593h10M955,576v35" style="stroke: #00009a; stroke-width: 1;"></path>
    </g>
    <g>
     <path d="M0,574.44C0.96,573.66,7.79,568.18,9.6,566.59S17.6,559.19,19.2,557.59S27.39,548.98,28.8,547.39S37.15,537.55,38.4,535.99S46.88,524.95,48,523.42S56.59,511.26,57.6,509.77S66.27,496.6,67.2,495.15S75.93,481.15,76.8,479.72S85.56,465.13,86.4,463.73S95.18,448.82,96,447.42S104.76,432.51,105.6,431.11S114.32,416.56,115.2,415.13S123.85,401.31,124.8,399.85S133.33,387.14,134.4,385.63S142.74,374.4,144,372.84S152.07,363.41,153.6,361.81S161.28,354.4,163.2,352.84S170.37,347.55,172.8,346.18S179.46,342.89,182.4,342.02S188.8,340.54,192,340.47S198.59,340.8,201.6,341.55S208.66,343.93,211.2,345.23S218.77,349.83,220.8,351.37S228.77,358.18,230.4,359.77S238.65,368.59,240,370.17S248.44,380.7,249.6,382.24S258.16,394.12,259.2,395.62S267.83,408.47,268.8,409.94S277.46,423.34,278.4,424.8S287.06,438.36,288,439.81S296.63,453.15,297.6,454.62S306.16,467.39,307.2,468.89S315.66,480.79,316.8,482.33S325.11,493.11,326.4,494.68S334.52,504.14,336,505.74S343.87,513.77,345.6,515.36S353.17,521.9,355.2,523.44S362.43,528.52,364.8,529.92S371.68,533.62,374.4,534.76S380.99,537.23,384,537.99S390.4,539.53,393.6,539.64S400,539.85,403.2,539.77S409.73,539.1,412.8,538.47S419.54,536.79,422.4,535.81S429.37,533.12,432,531.9S439.21,528.22,441.6,526.83S449.02,522.21,451.2,520.72S458.81,515.22,460.8,513.67S468.56,507.36,470.4,505.78S478.28,498.76,480,497.16S487.98,489.52,489.6,487.92S497.66,479.77,499.2,478.17S507.31,469.6,508.8,468.01S516.95,459.15,518.4,457.55S526.57,448.51,528,446.92S536.17,437.81,537.6,436.22S545.75,427.16,547.2,425.57S555.32,416.68,556.8,415.09S564.86,406.49,566.4,404.89S574.39,396.7,576,395.1S583.89,387.42,585.6,385.83S593.36,378.76,595.2,377.18S602.81,370.83,604.8,369.28S612.23,363.7,614.4,362.2S621.62,357.45,624,356.05S631,352.16,633.6,350.91S640.38,347.87,643.2,346.84S649.78,344.63,652.8,343.89S659.25,342.49,662.4,342.1S668.8,341.51,672,341.51S678.45,341.71,681.6,342.1S688.18,343.15,691.2,343.89S697.98,345.81,700.8,346.84S707.8,349.67,710.4,350.92S717.62,354.67,720,356.07S727.43,360.72,729.6,362.22S737.21,367.75,739.2,369.3S746.97,375.64,748.8,377.22S756.69,384.29,758.4,385.89S766.39,393.59,768,395.19S776.07,403.43,777.6,405.02S785.73,413.69,787.2,415.28S795.37,424.26,796.8,425.85S804.99,435.04,806.4,436.63S814.6,445.92,816,447.51S824.19,456.8,825.6,458.39S833.77,467.58,835.2,469.17S843.34,478.18,844.8,479.78S852.9,488.53,854.4,490.13S862.44,498.56,864,500.15S871.97,508.2,873.6,509.8S881.49,517.42,883.2,519.01S891.01,526.17,892.8,527.76S900.51,534.43,902.4,536.01S910.01,542.18,912,543.73S919.5,549.41,921.6,550.93S928.98,556.12,931.2,557.59S938.47,562.3,940.8,563.73S947.96,567.98,950.4,569.34S958.75,573.79,960,574.45" style="fill: none; stroke: #009a00; stroke-width: 2;"></path>
    </g>
    <g>
     <path d="M0,557.11C1.08,556.36,7.52,551.98,9.6,550.45S17.27,544.62,19.2,543.05S27.03,536.45,28.8,534.85S36.78,527.42,38.4,525.82S46.51,517.53,48,515.93S56.24,506.77,57.6,505.19S65.94,495.2,67.2,493.63S75.62,482.89,76.8,481.34S85.28,469.98,86.4,468.46S94.91,456.68,96,455.16S104.51,443.22,105.6,441.71S114.08,429.91,115.2,428.38S123.61,417.07,124.8,415.53S133.08,405.07,134.4,403.5S142.48,394.25,144,392.65S151.79,384.93,153.6,383.34S160.99,377.34,163.2,375.86S170.13,371.64,172.8,370.45S179.34,367.91,182.4,367.26S188.8,366.28,192,366.35S198.59,366.94,201.6,367.7S208.56,369.95,211.2,371.17S218.54,375.09,220.8,376.55S228.45,382.02,230.4,383.58S238.27,390.36,240,391.96S248.02,399.74,249.6,401.34S257.7,409.8,259.2,411.4S267.34,420.23,268.8,421.83S276.93,430.75,278.4,432.35S286.5,441.12,288,442.72S296.03,451.15,297.6,452.75S305.54,460.68,307.2,462.28S315.02,469.61,316.8,471.2S324.48,477.85,326.4,479.42S333.92,485.36,336,486.89S343.35,492.09,345.6,493.56S352.77,498.03,355.2,499.4S362.19,503.15,364.8,504.4S371.61,507.46,374.4,508.53S381.05,510.92,384,511.78S390.52,513.53,393.6,514.14S400.03,515.26,403.2,515.59S409.6,516.09,412.8,516.11S419.23,515.99,422.4,515.69S428.91,514.91,432,514.32S438.65,512.85,441.6,511.99S448.43,509.78,451.2,508.69S458.22,505.7,460.8,504.44S468.02,500.64,470.4,499.24S477.82,494.62,480,493.13S487.59,487.7,489.6,486.15S497.34,479.93,499.2,478.35S507.07,471.41,508.8,469.81S516.78,462.22,518.4,460.62S526.46,452.47,528,450.87S536.12,442.29,537.6,440.7S545.75,431.82,547.2,430.23S555.36,421.21,556.8,419.62S564.94,410.62,566.4,409.03S574.5,400.23,576,398.63S584.02,390.22,585.6,388.62S593.51,380.78,595.2,379.18S602.95,372.09,604.8,370.51S612.34,364.33,614.4,362.79S621.69,357.63,624,356.19S631,352.12,633.6,350.87S640.32,347.89,643.2,346.93S649.7,345.01,652.8,344.45S659.2,343.55,662.4,343.47S668.85,343.57,672,343.97S678.61,345.08,681.6,345.88S688.44,348.01,691.2,349.11S698.26,352.21,700.8,353.51S708.07,357.51,710.4,358.94S717.83,363.72,720,365.21S727.56,370.64,729.6,372.18S737.25,378.11,739.2,379.67S746.92,386,748.8,387.58S756.57,394.18,758.4,395.77S766.2,402.58,768,404.17S775.82,411.12,777.6,412.71S785.44,419.77,787.2,421.36S795.05,428.5,796.8,430.09S804.66,437.27,806.4,438.87S814.27,446.09,816,447.69S823.87,454.92,825.6,456.52S833.46,463.75,835.2,465.34S843.05,472.54,844.8,474.13S852.63,481.24,854.4,482.84S862.21,489.83,864,491.42S871.77,498.25,873.6,499.84S881.32,506.46,883.2,508.03S890.87,514.4,892.8,515.96S900.4,522.03,902.4,523.58S909.93,529.32,912,530.85S919.45,536.24,921.6,537.74S928.96,542.76,931.2,544.22S938.47,548.86,940.8,550.28S947.97,554.55,950.4,555.92S958.76,560.46,960,561.13" style="fill: none; stroke: red; stroke-width: 2;"></path>
    </g>
   </svg>
   <g>
    <g transform="translate(0,640)">
     <path d="M0,0h960M0,-24v24m19,-12v12m19,-12v12m20,-12v12m19,-12v12m19,-24v24m19,-12v12m19,-12v12m20,-12v12m19,-12v12m19,-24v24m19,-12v12m19,-12v12m20,-12v12m19,-12v12m19,-24v24m19,-12v12m19,-12v12m20,-12v12m19,-12v12m19,-24v24m19,-12v12m19,-12v12m20,-12v12m19,-12v12m19,-24v24m19,-12v12m19,-12v12m20,-12v12m19,-12v12m19,-24v24m19,-12v12m19,-12v12m20,-12v12m19,-12v12m19,-24v24m19,-12v12m19,-12v12m20,-12v12m19,-12v12m19,-24v24m19,-12v12m19,-12v12m20,-12v12m19,-12v12m19,-24v24m19,-12v12m19,-12v12m20,-12v12m19,-12v12m19,-24v24" style="stroke: black; stroke-width: 1;"></path>
     <g font-family="Arial" font-size="28" space="preserve" fill="black" text-anchor="middle">
      <text dy=".8em" transform="translate(0,6)">
       0
      </text>
      <text dy=".8em" transform="translate(96,6)">
       1
      </text>
      <text dy=".8em" transform="translate(192,6)">
       2
      </text>
      <text dy=".8em" transform="translate(288,6)">
       3
      </text>
      <text dy=".8em" transform="translate(384,6)">
       4
      </text>
      <text dy=".8em" transform="translate(480,6)">
       5
      </text>
      <text dy=".8em" transform="translate(576,6)">
       6
      </text>
      <text dy=".8em" transform="translate(672,6)">
       7
      </text>
      <text dy=".8em" transform="translate(768,6)">
       8
      </text>
      <text dy=".8em" transform="translate(864,6)">
       9
      </text>
      <text dy=".8em" transform="translate(960,6)">
       10
      </text>
     </g>
    </g>
    <g>
     <path d="M0,0v640M18,628h-18m36,-17h-36m18,-17h-18m18,-17h-18m18,-17h-18m18,-17h-18m36,-17h-36m18,-16h-18m18,-17h-18m18,-17h-18m18,-17h-18m36,-17h-36m18,-17h-18m18,-17h-18m18,-17h-18m18,-16h-18m36,-17h-36m18,-17h-18m18,-17h-18m18,-17h-18m18,-17h-18m36,-17h-36m18,-17h-18m18,-17h-18m18,-16h-18m18,-17h-18m36,-17h-36m18,-17h-18m18,-17h-18m18,-17h-18m18,-17h-18m36,-17h-36m18,-16h-18m18,-17h-18m18,-17h-18m18,-17h-18m36,-17h-36m18,-17h-18" style="stroke: black; stroke-width: 1;"></path>
     <g font-family="Arial" font-size="28" space="preserve" fill="black" text-anchor="end">
      <text dy=".4em" transform="translate(-4,611)">
       0
      </text>
      <text dy=".4em" transform="translate(-4,526)">
       0.05
      </text>
      <text dy=".4em" transform="translate(-4,442)">
       0.10
      </text>
      <text dy=".4em" transform="translate(-4,358)">
       0.15
      </text>
      <text dy=".4em" transform="translate(-4,273)">
       0.20
      </text>
      <text dy=".4em" transform="translate(-4,189)">
       0.25
      </text>
      <text dy=".4em" transform="translate(-4,104)">
       0.30
      </text>
      <text dy=".4em" transform="translate(-4,20)">
       0.35
      </text>
     </g>
    </g>
   </g>
  </g>
  <g transform="translate(120,4)" font-family="Arial" font-size="40" space="preserve">
   <text fill="black" text-anchor="middle" dy=".8em" transform="translate(480)">
    Bi-Gaussian
   </text>
  </g>
  <g transform="translate(720,40)" font-family="Arial" font-size="32" space="preserve">
   <path d="M0,0H360V200H0Z" style="fill: white; stroke: black; stroke-width: 1;"></path>
   <path d="M11,30H79" style="stroke: #009a00; stroke-width: 2;"></path>
   <path d="M45,30h1" style="stroke: black; fill: none;"></path>
   <text fill="black" text-anchor="start" dy=".4em" transform="translate(90,30)">
    True function
   </text>
   <path d="M11,77H79" style="stroke: red; stroke-width: 2;"></path>
   <path d="M45,77h1" style="stroke: black; fill: none;"></path>
   <text fill="black" text-anchor="start" dy=".4em" transform="translate(90,77)">
    TKDE
   </text>
   <path d="M11,124H79" style="stroke: black; stroke-width: 1;"></path>
   <path d="M41,120v8h8v-8z" style="stroke: black; fill: black;"></path>
   <g transform="translate(90,135) scale(0.782)">
    <text fill="black" font-size="42">
     TKDE - σ
    </text>
   </g>
   <path d="M11,171H79" style="stroke: black; stroke-width: 1;"></path>
   <path d="M41,167v8h8v-8z" style="stroke: black; fill: black;"></path>
   <g transform="translate(90,182) scale(0.782)">
    <text fill="black" font-size="42">
     TKDE + σ
    </text>
   </g>
  </g>
 </g>
</svg>

<svg xmlns="http://www.w3.org/2000/svg" viewBox="0 0 1200 800" preserveAspectRatio="none" width="1200" height="800">
 <path d="M0,0H1200V800H0Z" style="fill: white;"></path>
 <g>
  <g transform="translate(120,80)">
   <path d="M0,0H960V640H0Z" style="fill: white; stroke: black; stroke-width: 1;"></path>
   <svg x="0" y="0" overflow="hidden" width="960" height="640" viewBox="0 0 960 640">
    <g>
     <path d="M0,558h10M5,528v61M10,593h10M15,576v35M19,558h10M24,528v61M29,506h10M34,463v86M38,541h10M43,506v70M48,419h10M53,361v116M58,558h10M63,528v61M67,454h10M72,401v105M77,471h10M82,422v99M86,419h10M91,361v116M96,524h10M101,484v79M106,489h10M111,442v93M115,384h10M120,321v126M125,401h10M130,341v121M134,541h10M139,506v70M144,314h10M149,242v144M154,122h10M159,29v185M163,349h10M168,281v135M173,384h10M178,321v126M182,261h10M187,183v157M192,139h10M197,48v182M202,541h10M207,506v70M211,296h10M216,222v148M221,314h10M226,242v144M230,454h10M235,401v105M240,436h10M245,381v110M250,489h10M255,442v93M259,454h10M264,401v105M269,384h10M274,321v126M278,384h10M283,321v126M288,436h10M293,381v110M298,471h10M303,422v99M307,471h10M312,422v99M317,401h10M322,341v121M326,541h10M331,506v70M336,506h10M341,463v86M346,576h10M351,551v50M355,506h10M360,463v86M365,489h10M370,442v93M374,558h10M379,528v61M384,524h10M389,484v79M394,524h10M399,484v79M403,489h10M408,442v93M413,524h10M418,484v79M422,558h10M427,528v61M432,541h10M437,506v70M442,541h10M447,506v70M451,506h10M456,463v86M461,506h10M466,463v86M470,524h10M475,484v79M480,489h10M485,442v93M490,541h10M495,506v70M499,489h10M504,442v93M509,506h10M514,463v86M518,489h10M523,442v93M528,454h10M533,401v105M538,349h10M543,281v135M547,384h10M552,321v126M557,349h10M562,281v135M566,419h10M571,361v116M576,419h10M581,361v116M586,331h10M591,261v140M595,436h10M600,381v110M605,331h10M610,261v140M614,349h10M619,281v135M624,331h10M629,261v140M634,401h10M639,341v121M643,314h10M648,242v144M653,261h10M658,183v157M662,279h10M667,203v152M672,401h10M677,341v121M682,279h10M687,203v152M691,331h10M696,261v140M701,401h10M706,341v121M710,471h10M715,422v99M720,226h10M725,144v164M730,419h10M735,361v116M739,401h10M744,341v121M749,454h10M754,401v105M758,401h10M763,341v121M768,436h10M773,381v110M778,471h10M783,422v99M787,366h10M792,301v131M797,314h10M802,242v144M806,506h10M811,463v86M816,419h10M821,361v116M826,489h10M831,442v93M835,471h10M840,422v99M845,366h10M850,301v131M854,471h10M859,422v99M864,471h10M869,422v99M874,489h10M879,442v93M883,506h10M888,463v86M893,576h10M898,551v50M902,558h10M907,528v61M912,471h10M917,422v99M922,558h10M927,528v61M931,471h10M936,422v99M941,576h10M946,551v50M950,593h10M955,576v35" style="stroke: #00009a; stroke-width: 1;"></path>
    </g>
    <g>
     <path d="M0,574.44C0.96,573.66,7.79,568.18,9.6,566.59S17.6,559.19,19.2,557.59S27.39,548.98,28.8,547.39S37.15,537.55,38.4,535.99S46.88,524.95,48,523.42S56.59,511.26,57.6,509.77S66.27,496.6,67.2,495.15S75.93,481.15,76.8,479.72S85.56,465.13,86.4,463.73S95.18,448.82,96,447.42S104.76,432.51,105.6,431.11S114.32,416.56,115.2,415.13S123.85,401.31,124.8,399.85S133.33,387.14,134.4,385.63S142.74,374.4,144,372.84S152.07,363.41,153.6,361.81S161.28,354.4,163.2,352.84S170.37,347.55,172.8,346.18S179.46,342.89,182.4,342.02S188.8,340.54,192,340.47S198.59,340.8,201.6,341.55S208.66,343.93,211.2,345.23S218.77,349.83,220.8,351.37S228.77,358.18,230.4,359.77S238.65,368.59,240,370.17S248.44,380.7,249.6,382.24S258.16,394.12,259.2,395.62S267.83,408.47,268.8,409.94S277.46,423.34,278.4,424.8S287.06,438.36,288,439.81S296.63,453.15,297.6,454.62S306.16,467.39,307.2,468.89S315.66,480.79,316.8,482.33S325.11,493.11,326.4,494.68S334.52,504.14,336,505.74S343.87,513.77,345.6,515.36S353.17,521.9,355.2,523.44S362.43,528.52,364.8,529.92S371.68,533.62,374.4,534.76S380.99,537.23,384,537.99S390.4,539.53,393.6,539.64S400,539.85,403.2,539.77S409.73,539.1,412.8,538.47S419.54,536.79,422.4,535.81S429.37,533.12,432,531.9S439.21,528.22,441.6,526.83S449.02,522.21,451.2,520.72S458.81,515.22,460.8,513.67S468.56,507.36,470.4,505.78S478.28,498.76,480,497.16S487.98,489.52,489.6,487.92S497.66,479.77,499.2,478.17S507.31,469.6,508.8,468.01S516.95,459.15,518.4,457.55S526.57,448.51,528,446.92S536.17,437.81,537.6,436.22S545.75,427.16,547.2,425.57S555.32,416.68,556.8,415.09S564.86,406.49,566.4,404.89S574.39,396.7,576,395.1S583.89,387.42,585.6,385.83S593.36,378.76,595.2,377.18S602.81,370.83,604.8,369.28S612.23,363.7,614.4,362.2S621.62,357.45,624,356.05S631,352.16,633.6,350.91S640.38,347.87,643.2,346.84S649.78,344.63,652.8,343.89S659.25,342.49,662.4,342.1S668.8,341.51,672,341.51S678.45,341.71,681.6,342.1S688.18,343.15,691.2,343.89S697.98,345.81,700.8,346.84S707.8,349.67,710.4,350.92S717.62,354.67,720,356.07S727.43,360.72,729.6,362.22S737.21,367.75,739.2,369.3S746.97,375.64,748.8,377.22S756.69,384.29,758.4,385.89S766.39,393.59,768,395.19S776.07,403.43,777.6,405.02S785.73,413.69,787.2,415.28S795.37,424.26,796.8,425.85S804.99,435.04,806.4,436.63S814.6,445.92,816,447.51S824.19,456.8,825.6,458.39S833.77,467.58,835.2,469.17S843.34,478.18,844.8,479.78S852.9,488.53,854.4,490.13S862.44,498.56,864,500.15S871.97,508.2,873.6,509.8S881.49,517.42,883.2,519.01S891.01,526.17,892.8,527.76S900.51,534.43,902.4,536.01S910.01,542.18,912,543.73S919.5,549.41,921.6,550.93S928.98,556.12,931.2,557.59S938.47,562.3,940.8,563.73S947.96,567.98,950.4,569.34S958.75,573.79,960,574.45" style="fill: none; stroke: #009a00; stroke-width: 2;"></path>
    </g>
    <g>
     <path d="M0,557.11C1.08,556.36,7.52,551.98,9.6,550.45S17.27,544.62,19.2,543.05S27.03,536.45,28.8,534.85S36.78,527.42,38.4,525.82S46.51,517.53,48,515.93S56.24,506.77,57.6,505.19S65.94,495.2,67.2,493.63S75.62,482.89,76.8,481.34S85.28,469.98,86.4,468.46S94.91,456.68,96,455.16S104.51,443.22,105.6,441.71S114.08,429.91,115.2,428.38S123.61,417.07,124.8,415.53S133.08,405.07,134.4,403.5S142.48,394.25,144,392.65S151.79,384.93,153.6,383.34S160.99,377.34,163.2,375.86S170.13,371.64,172.8,370.45S179.34,367.91,182.4,367.26S188.8,366.28,192,366.35S198.59,366.94,201.6,367.7S208.56,369.95,211.2,371.17S218.54,375.09,220.8,376.55S228.45,382.02,230.4,383.58S238.27,390.36,240,391.96S248.02,399.74,249.6,401.34S257.7,409.8,259.2,411.4S267.34,420.23,268.8,421.83S276.93,430.75,278.4,432.35S286.5,441.12,288,442.72S296.03,451.15,297.6,452.75S305.54,460.68,307.2,462.28S315.02,469.61,316.8,471.2S324.48,477.85,326.4,479.42S333.92,485.36,336,486.89S343.35,492.09,345.6,493.56S352.77,498.03,355.2,499.4S362.19,503.15,364.8,504.4S371.61,507.46,374.4,508.53S381.05,510.92,384,511.78S390.52,513.53,393.6,514.14S400.03,515.26,403.2,515.59S409.6,516.09,412.8,516.11S419.23,515.99,422.4,515.69S428.91,514.91,432,514.32S438.65,512.85,441.6,511.99S448.43,509.78,451.2,508.69S458.22,505.7,460.8,504.44S468.02,500.64,470.4,499.24S477.82,494.62,480,493.13S487.59,487.7,489.6,486.15S497.34,479.93,499.2,478.35S507.07,471.41,508.8,469.81S516.78,462.22,518.4,460.62S526.46,452.47,528,450.87S536.12,442.29,537.6,440.7S545.75,431.82,547.2,430.23S555.36,421.21,556.8,419.62S564.94,410.62,566.4,409.03S574.5,400.23,576,398.63S584.02,390.22,585.6,388.62S593.51,380.78,595.2,379.18S602.95,372.09,604.8,370.51S612.34,364.33,614.4,362.79S621.69,357.63,624,356.19S631,352.12,633.6,350.87S640.32,347.89,643.2,346.93S649.7,345.01,652.8,344.45S659.2,343.55,662.4,343.47S668.85,343.57,672,343.97S678.61,345.08,681.6,345.88S688.44,348.01,691.2,349.11S698.26,352.21,700.8,353.51S708.07,357.51,710.4,358.94S717.83,363.72,720,365.21S727.56,370.64,729.6,372.18S737.25,378.11,739.2,379.67S746.92,386,748.8,387.58S756.57,394.18,758.4,395.77S766.2,402.58,768,404.17S775.82,411.12,777.6,412.71S785.44,419.77,787.2,421.36S795.05,428.5,796.8,430.09S804.66,437.27,806.4,438.87S814.27,446.09,816,447.69S823.87,454.92,825.6,456.52S833.46,463.75,835.2,465.34S843.05,472.54,844.8,474.13S852.63,481.24,854.4,482.84S862.21,489.83,864,491.42S871.77,498.25,873.6,499.84S881.32,506.46,883.2,508.03S890.87,514.4,892.8,515.96S900.4,522.03,902.4,523.58S909.93,529.32,912,530.85S919.45,536.24,921.6,537.74S928.96,542.76,931.2,544.22S938.47,548.86,940.8,550.28S947.97,554.55,950.4,555.92S958.76,560.46,960,561.13" style="fill: none; stroke: red; stroke-width: 2;"></path>
    </g>
   </svg>
   <g>
    <g transform="translate(0,640)">
     <path d="M0,0h960M0,-24V0M19,-12V0M38,-12V0M58,-12V0M77,-12V0M96,-24V0M115,-12V0M134,-12V0M154,-12V0M173,-12V0M192,-24V0M211,-12V0M230,-12V0M250,-12V0M269,-12V0M288,-24V0M307,-12V0M326,-12V0M346,-12V0M365,-12V0M384,-24V0M403,-12V0M422,-12V0M442,-12V0M461,-12V0M480,-24V0M499,-12V0M518,-12V0M538,-12V0M557,-12V0M576,-24V0M595,-12V0M614,-12V0M634,-12V0M653,-12V0M672,-24V0M691,-12V0M710,-12V0M730,-12V0M749,-12V0M768,-24V0M787,-12V0M806,-12V0M826,-12V0M845,-12V0M864,-24V0M883,-12V0M902,-12V0M922,-12V0M941,-12V0M960,-24V0" style="stroke: black; stroke-width: 1;"></path>
     <g font-family="Arial" font-size="28" space="preserve" fill="black" text-anchor="middle">
      <text dy=".8em" transform="translate(0,6)">
       0
      </text>
      <text dy=".8em" transform="translate(96,6)">
       1
      </text>
      <text dy=".8em" transform="translate(192,6)">
       2
      </text>
      <text dy=".8em" transform="translate(288,6)">
       3
      </text>
      <text dy=".8em" transform="translate(384,6)">
       4
      </text>
      <text dy=".8em" transform="translate(480,6)">
       5
      </text>
      <text dy=".8em" transform="translate(576,6)">
       6
      </text>
      <text dy=".8em" transform="translate(672,6)">
       7
      </text>
      <text dy=".8em" transform="translate(768,6)">
       8
      </text>
      <text dy=".8em" transform="translate(864,6)">
       9
      </text>
      <text dy=".8em" transform="translate(960,6)">
       10
      </text>
     </g>
    </g>
    <g>
     <path d="M0,0v640M18,628H0M36,611H0M18,594H0M18,577H0M18,560H0M18,543H0M36,526H0M18,510H0M18,493H0M18,476H0M18,459H0M36,442H0M18,425H0M18,408H0M18,391H0M18,375H0M36,358H0M18,341H0M18,324H0M18,307H0M18,290H0M36,273H0M18,256H0M18,239H0M18,223H0M18,206H0M36,189H0M18,172H0M18,155H0M18,138H0M18,121H0M36,104H0M18,88H0M18,71H0M18,54H0M18,37H0M36,20H0M18,3H0" style="stroke: black; stroke-width: 1;"></path>
     <g font-family="Arial" font-size="28" space="preserve" fill="black" text-anchor="end">
      <text dy=".4em" transform="translate(-4,611)">
       0
      </text>
      <text dy=".4em" transform="translate(-4,526)">
       0.05
      </text>
      <text dy=".4em" transform="translate(-4,442)">
       0.10
      </text>
      <text dy=".4em" transform="translate(-4,358)">
       0.15
      </text>
      <text dy=".4em" transform="translate(-4,273)">
       0.20
      </text>
      <text dy=".4em" transform="translate(-4,189)">
       0.25
      </text>
      <text dy=".4em" transform="translate(-4,104)">
       0.30
      </text>
      <text dy=".4em" transform="translate(-4,20)">
       0.35
      </text>
     </g>
    </g>
   </g>
  </g>
  <g transform="translate(120,4)" font-family="Arial" font-size="40" space="preserve">
   <text fill="black" text-anchor="middle" dy=".8em" transform="translate(480)">
    Bi-Gaussian
   </text>
  </g>
  <g transform="translate(720,40)" font-family="Arial" font-size="32" space="preserve">
   <path d="M0,0H360V200H0Z" style="fill: white; stroke: black; stroke-width: 1;"></path>
   <path d="M11,30H79" style="stroke: #009a00; stroke-width: 2;"></path>
   <path d="M45,30h1" style="stroke: black; fill: none;"></path>
   <text fill="black" text-anchor="start" dy=".4em" transform="translate(90,30)">
    True function
   </text>
   <path d="M11,77H79" style="stroke: red; stroke-width: 2;"></path>
   <path d="M45,77h1" style="stroke: black; fill: none;"></path>
   <text fill="black" text-anchor="start" dy=".4em" transform="translate(90,77)">
    TKDE
   </text>
   <path d="M11,124H79" style="stroke: black; stroke-width: 1;"></path>
   <path d="M41,120v8h8v-8z" style="stroke: black; fill: black;"></path>
   <g transform="translate(90,135) scale(0.782)">
    <text fill="black" font-size="42">
     TKDE - σ
    </text>
   </g>
   <path d="M11,171H79" style="stroke: black; stroke-width: 1;"></path>
   <path d="M41,167v8h8v-8z" style="stroke: black; fill: black;"></path>
   <g transform="translate(90,182) scale(0.782)">
    <text fill="black" font-size="42">
     TKDE + σ
    </text>
   </g>
  </g>
 </g>
</svg>
